X:129
T:Monaghan Switch (r)
T:Ladies of Tullybardee
B:NFID.070
129mon_s
S:JD
L:1/8
M:C
R:reel % A-B-C-A, final |FDGE D4|
Q:360
K:D
Bc|:dAAG FDGE|FDGF E2Bc|dAAG FDGE|FDGE D2Dc|
dAAG FDGE|FDGF E2FG|ABAG FDGE|FDGE D2Bc|
%B
dAAG FDGE|FDGF E2Bc|dAAG FDGE|FDGE Dgfe|
dAAG FDGE|FDGF E2FG|ABAG FDGE|FDGE D2Dd||
%C
cA (3AAA cAGE|cABG E2ED|cA (3AAA dAAG|FDGE D2Dd|
cA (3Bcd cAAB|cBcd efga|fded cABd|1 cAGE D2Dd:|\
[2 cAGE Dgfe||

%%%

